src/pos-icons/ray-end-arrow.svg

<svg height="24" viewBox="0 0 24 24" width="24" xmlns="http://www.w3.org/2000/svg"><path d="m1 12 4 4v-3h12.17c.41 1.17 1.52 2 2.83 2a3 3 0 0 0 3-3 3 3 0 0 0 -3-3c-1.31 0-2.42.83-2.83 2h-12.17v-3z"/></svg>

<?xml version="1.0" encoding="UTF-8"?><!DOCTYPE svg PUBLIC "-//W3C//DTD SVG 1.1//EN" "http://www.w3.org/Graphics/SVG/1.1/DTD/svg11.dtd"><svg xmlns="http://www.w3.org/2000/svg" xmlns:xlink="http://www.w3.org/1999/xlink" version="1.1" id="mdi-ray-end-arrow" width="24" height="24" viewBox="0 0 24 24"><path d="M1,12L5,16V13H17.17C17.58,14.17 18.69,15 20,15A3,3 0 0,0 23,12A3,3 0 0,0 20,9C18.69,9 17.58,9.83 17.17,11H5V8L1,12Z" /></svg>
